MB/img/icon/step_2.svg

<svg width="35" height="35" viewBox="0 0 35 35" fill="none" xmlns="http://www.w3.org/2000/svg">
<g clip-path="url(#clip0)">
<path d="M27.4121 1.36719C27.4121 0.61209 26.8 -2.67553e-08 26.0449 -5.97617e-08L8.95508 -8.06782e-07C8.19998 -8.39789e-07 7.58789 0.612089 7.58789 1.36719C7.58789 2.12228 8.19998 2.73437 8.95508 2.73437L26.0449 2.73437C26.8 2.73437 27.4121 2.12229 27.4121 1.36719Z" fill="#4066C4"/>
<path d="M27.4121 33.6328C27.4121 32.8777 26.8 32.2656 26.0449 32.2656L8.95508 32.2656C8.19998 32.2656 7.58789 32.8777 7.58789 33.6328C7.58789 34.3879 8.19998 35 8.95508 35L26.0449 35C26.8 35 27.4121 34.3879 27.4121 33.6328Z" fill="#4066C4"/>
<path d="M18.8671 23.9941L18.8671 6.20806L22.75 10.1229C23.2817 10.6591 24.1473 10.6626 24.6834 10.1309C25.2194 9.5993 25.2231 8.73359 24.6914 8.19738L20.4767 3.94803C19.7005 3.16538 18.6676 2.73437 17.5683 2.73437C16.469 2.73437 15.4361 3.16538 14.6598 3.94803L10.4453 8.19738C10.1809 8.46398 10.0488 8.81207 10.0488 9.16009C10.0488 9.51186 10.1837 9.86357 10.4532 10.1309C10.9893 10.6626 11.855 10.6591 12.3867 10.1229L16.1328 6.34594L16.1328 23.9941C16.1328 24.7492 16.7449 25.3613 17.5 25.3613C18.2551 25.3613 18.8671 24.7492 18.8671 23.9941Z" fill="#4066C4"/>
<path d="M20.4769 31.0519L24.6914 26.8025C25.2232 26.2664 25.2196 25.4007 24.6835 24.869C24.1474 24.3373 23.2817 24.3408 22.75 24.877L18.5355 29.1263C18.2765 29.3873 17.933 29.5312 17.5684 29.5312C17.2038 29.5312 16.8603 29.3873 16.6014 29.1263L12.3868 24.877C11.8551 24.3408 10.9894 24.3373 10.4533 24.869C10.1837 25.1363 10.0489 25.488 10.0489 25.8398C10.0489 26.1878 10.1809 26.536 10.4453 26.8025L14.66 31.0519C15.4362 31.8345 16.4691 32.2655 17.5684 32.2655C18.6677 32.2655 19.7006 31.8345 20.4769 31.0519Z" fill="#4066C4"/>
</g>
<defs>
<clipPath id="clip0">
<rect width="35" height="35" fill="white" transform="translate(35) rotate(90)"/>
</clipPath>
</defs>
</svg>

<svg width="35" height="35" fill="none" xmlns="http://www.w3.org/2000/svg"><g clip-path="url(#clip0)" fill="#4066C4"><path d="M27.412 1.367C27.412.612 26.8 0 26.045 0H8.955a1.367 1.367 0 100 2.734h17.09c.755 0 1.367-.612 1.367-1.367zm0 32.266c0-.755-.612-1.367-1.367-1.367H8.955a1.367 1.367 0 100 2.734h17.09c.755 0 1.367-.612 1.367-1.367z"/><path d="M18.867 23.994V6.208l3.883 3.915a1.367 1.367 0 101.941-1.926l-4.214-4.249a4.069 4.069 0 00-2.909-1.214 4.07 4.07 0 00-2.908 1.214l-4.215 4.25a1.363 1.363 0 00.008 1.934 1.367 1.367 0 001.934-.01l3.746-3.776v17.648a1.367 1.367 0 102.734 0z"/><path d="M20.477 31.052l4.214-4.25a1.367 1.367 0 10-1.941-1.925l-4.215 4.25a1.354 1.354 0 01-1.934 0l-4.214-4.25a1.367 1.367 0 10-1.942 1.925l4.215 4.25a4.069 4.069 0 002.908 1.214 4.07 4.07 0 002.909-1.214z"/></g><defs><clipPath id="clip0"><path fill="#fff" transform="rotate(90 17.5 17.5)" d="M0 0h35v35H0z"/></clipPath></defs></svg>
